app/images/brands/pepsi.svg

<svg width="80" height="31" viewBox="0 0 80 31" fill="none" xmlns="http://www.w3.org/2000/svg">
<g clip-path="url(#clip0_1922_2240)">
<path d="M15.2258 30.3372C6.90678 30.3372 0.138626 23.5636 0.138626 15.2385C0.138626 6.91252 6.90678 0.13916 15.2258 0.13916C23.5445 0.13916 30.3124 6.91279 30.3124 15.2385C30.3124 23.5636 23.5445 30.3372 15.2258 30.3372Z" fill="white"/>
<path d="M15.2258 0.277937C23.4811 0.277937 30.1738 6.97583 30.1738 15.2385C30.1738 23.5012 23.4811 30.1988 15.2258 30.1988C6.97005 30.1988 0.277338 23.5009 0.277338 15.2385C0.277338 6.9761 6.97005 0.277937 15.2258 0.277937ZM15.2258 0.000488281C6.83027 0.000488281 0 6.83627 0 15.2385C0 23.6411 6.83027 30.4763 15.2258 30.4763C23.6211 30.4763 30.4511 23.6402 30.4511 15.2385C30.4511 6.83627 23.6211 0.000488281 15.2258 0.000488281Z" fill="#004883"/>
<path d="M79.7198 9.10215C79.8876 8.90627 79.9999 8.68293 79.9999 8.40298C80.002 8.12511 79.9024 7.85608 79.7198 7.64666C79.5232 7.45022 79.2728 7.33813 78.9918 7.33813C78.7128 7.33813 78.4893 7.4505 78.2644 7.64666C78.0694 7.84281 77.9843 8.09474 77.9843 8.40298C77.9843 8.68293 78.0694 8.90627 78.2644 9.10215C78.4893 9.29831 78.7128 9.3821 78.9918 9.3821C79.2728 9.3821 79.5232 9.29831 79.7198 9.10215ZM79.7767 19.4063V10.3623H78.2646L78.2932 19.4063H79.7767ZM76.2772 10.8107L76.026 10.6983C75.354 10.306 74.5419 10.1104 73.5629 10.1104C72.4991 10.1104 71.6316 10.362 70.9879 10.8662C70.652 11.1184 70.4279 11.37 70.2601 11.7066C70.0926 12.0143 70.0077 12.3222 70.0077 12.686C70.0077 13.3022 70.2884 13.806 70.7926 14.2538C71.2677 14.6742 71.9671 15.0101 72.8909 15.2898C73.6742 15.5417 74.2061 15.7939 74.5419 16.0461C74.8223 16.3264 74.9904 16.6341 74.9904 17.0258C74.9904 17.4459 74.7663 17.7819 74.3739 18.0621C73.9817 18.2863 73.4215 18.4261 72.7229 18.4261C71.9666 18.4261 71.2117 18.2299 70.4279 17.8654L70.2318 17.7261L69.5881 18.9016L69.8128 19.0137C70.68 19.4338 71.6321 19.6294 72.6674 19.6294C73.787 19.6294 74.7106 19.4055 75.438 18.9016C75.8019 18.6775 76.054 18.3701 76.2501 18.0624C76.445 17.6983 76.5296 17.3058 76.5296 16.914V16.8851C76.5296 16.2134 76.2501 15.6253 75.7181 15.1497C75.2708 14.7582 74.5428 14.4217 73.5909 14.142C72.8629 13.889 72.3316 13.6373 72.0234 13.4415C71.6876 13.189 71.5478 12.9096 71.5478 12.6016C71.5478 12.2373 71.6876 11.9579 71.9963 11.706C72.3316 11.4816 72.7786 11.3414 73.3669 11.3414C74.1786 11.3414 74.8503 11.4816 75.3823 11.8175L75.5784 11.9577L76.2772 10.8107ZM67.1537 11.4824C66.1181 10.5865 64.831 10.1107 63.3467 10.1107C61.8915 10.1107 60.6881 10.5582 59.7088 11.4263C58.6167 12.4068 58.0576 13.7503 58.0576 15.5143V22.542H59.5122V18.0063C59.9604 18.5099 60.5209 18.9022 61.192 19.1827C61.8637 19.4901 62.5912 19.6299 63.3755 19.6299C64.8587 19.6299 66.1181 19.1827 67.1537 18.2297C68.2175 17.3058 68.7484 16.1863 68.7484 14.8698C68.7484 13.5261 68.2175 12.4066 67.1537 11.4824ZM63.3467 11.37C64.4388 11.37 65.3898 11.7066 66.1173 12.378C66.8736 13.05 67.2654 13.8895 67.2654 14.8986C67.2654 15.8497 66.929 16.6338 66.2576 17.3058C65.5301 18.0058 64.5506 18.3701 63.3752 18.3701C62.1988 18.3701 61.2469 18.006 60.4917 17.3058C59.7926 16.6063 59.457 15.8222 59.457 14.8986C59.457 13.9739 59.7929 13.1623 60.4917 12.4898C61.22 11.7623 62.1719 11.37 63.3467 11.37ZM55.734 11.9307C54.7553 10.6983 53.3556 10.1104 51.4799 10.1104C50.0805 10.1104 48.8763 10.5024 47.8413 11.342C46.7222 12.2101 46.1625 13.3865 46.1625 14.8423C46.1625 15.6541 46.3861 16.4662 46.8617 17.222C47.2822 17.9497 47.9256 18.5382 48.7934 18.9857C49.6606 19.406 50.5841 19.6016 51.5917 19.6016C52.5435 19.6016 53.4388 19.406 54.3071 18.9857C55.1738 18.5382 55.8178 17.9497 56.2377 17.222L56.5178 16.7459H54.8948C54.5584 17.222 54.0819 17.6143 53.4673 17.922C52.8516 18.2297 52.1799 18.3701 51.536 18.3701C50.6404 18.3701 49.8847 18.1453 49.2127 17.6975C48.541 17.2217 48.0936 16.6338 47.8135 15.8497C48.7365 15.4857 49.6606 15.2895 50.6687 15.2895L52.1799 15.4571L54.5306 15.6816C55.2581 15.6816 55.8749 15.5695 56.4337 15.4019C56.6581 15.3176 56.7976 15.2055 56.8542 15.0654C56.9377 14.9535 56.9377 14.7582 56.8825 14.5332C56.7136 13.5261 56.35 12.6585 55.734 11.9307ZM55.343 14.2272L55.3707 14.2827L54.5587 14.3945L52.7956 14.2269L50.3326 14.0302H49.9127C49.1289 14.0862 48.4015 14.2269 47.7015 14.4783C47.813 13.442 48.3175 12.6296 49.1572 12.0423C49.8564 11.5936 50.6407 11.342 51.4799 11.342C52.7948 11.342 53.8029 11.7621 54.5587 12.6022C54.9508 13.1066 55.2301 13.6382 55.343 14.2272ZM39.6407 10.1104C38.2132 10.1104 36.9818 10.5579 36.0023 11.4261C34.9107 12.4066 34.3787 13.75 34.3787 15.5137L34.351 22.5415H35.8625L35.8342 18.0058C36.2821 18.5096 36.8418 18.9016 37.4858 19.1821C38.1852 19.4898 38.9132 19.6291 39.6967 19.6291C41.1802 19.6291 42.4396 19.1821 43.4754 18.2294C44.5387 17.3055 45.0424 16.1854 45.0424 14.8692C45.0424 13.5252 44.5387 12.4057 43.5029 11.4816C42.4396 10.5862 41.1802 10.1104 39.6407 10.1104ZM36.786 12.4901C37.5418 11.7623 38.4656 11.37 39.6407 11.37C40.7606 11.37 41.6841 11.7066 42.439 12.378C43.1956 13.05 43.5586 13.8895 43.5586 14.8986C43.5586 15.8497 43.2233 16.6338 42.5788 17.3058C41.8519 18.0058 40.9001 18.3701 39.6687 18.3701C38.5211 18.3701 37.5418 18.006 36.7858 17.3058C36.114 16.6063 35.7782 15.8222 35.7782 14.8986C35.7785 13.9742 36.114 13.1626 36.786 12.4901Z" fill="#004883"/>
<path d="M23.7734 3.90214C23.6449 3.80483 23.523 3.69918 23.4084 3.58585C21.0143 1.89653 18.1555 0.991625 15.2258 0.995864C7.3669 0.995864 0.995894 7.37219 0.995894 15.2379C0.99155 18.3029 1.97942 21.287 3.8117 23.7436C8.57359 22.3369 12.7281 19.8896 16.2886 16.3524C19.8446 12.8321 22.3434 8.66566 23.7734 3.90214Z" fill="#E32934"/>
<path d="M15.2258 29.4799C23.0841 29.4799 29.4551 23.1028 29.4551 15.2376C29.4551 12.4534 28.6564 9.85736 27.2769 7.66412C27.2407 7.62796 27.2082 7.58827 27.1799 7.54565C27.4694 8.50154 27.616 9.49501 27.615 10.4938C27.615 12.11 27.2417 13.6395 26.5084 15.0717C25.7833 16.4319 24.7639 17.613 23.5245 18.529C22.53 19.2629 21.3364 19.8849 19.9311 20.3949C18.8126 20.8044 17.3577 21.2278 15.5553 21.6376L10.3579 22.8076C8.1484 23.3142 6.13603 23.8563 4.34332 24.4115C6.95335 27.5114 10.8594 29.4799 15.2258 29.4799Z" fill="#004883"/>
</g>
<defs>
<clipPath id="clip0_1922_2240">
<rect width="80" height="30.4762" fill="white"/>
</clipPath>
</defs>
</svg>

<svg width="80" height="31" fill="none" xmlns="http://www.w3.org/2000/svg"><g clip-path="url(#clip0_1922_2240)"><path d="M15.226 30.337C6.906 30.337.139 23.564.139 15.24.139 6.914 6.907.14 15.226.14c8.318 0 15.086 6.774 15.086 15.1 0 8.325-6.768 15.098-15.086 15.098z" fill="#fff"/><path d="M15.226.278c8.255 0 14.948 6.698 14.948 14.96 0 8.263-6.693 14.96-14.948 14.96-8.256 0-14.949-6.697-14.949-14.96C.277 6.976 6.97.278 15.226.278zm0-.278C6.83 0 0 6.836 0 15.238c0 8.403 6.83 15.238 15.226 15.238 8.395 0 15.225-6.836 15.225-15.237C30.451 6.835 23.621 0 15.226 0zM79.72 9.102c.168-.196.28-.42.28-.699a1.138 1.138 0 00-.28-.756 1.015 1.015 0 00-.728-.309c-.28 0-.503.112-.728.309-.195.196-.28.448-.28.756 0 .28.085.503.28.7.225.195.449.28.728.28.28 0 .531-.085.728-.28zm.057 10.304v-9.044h-1.512l.028 9.044h1.484zm-3.5-8.595l-.251-.113c-.672-.392-1.484-.588-2.463-.588-1.064 0-1.931.252-2.575.756-.336.252-.56.504-.728.84a1.968 1.968 0 00-.252.98c0 .616.28 1.12.785 1.568.475.42 1.174.756 2.098 1.036.783.252 1.315.504 1.65.756.281.28.45.588.45.98 0 .42-.225.756-.617 1.036-.392.224-.953.364-1.651.364-.756 0-1.511-.196-2.295-.56l-.196-.14-.644 1.176.225.112c.867.42 1.82.615 2.854.615 1.12 0 2.044-.224 2.771-.727.364-.225.616-.532.812-.84a2.41 2.41 0 00.28-1.148v-.029c0-.672-.28-1.26-.812-1.735-.447-.392-1.175-.728-2.127-1.008-.728-.253-1.26-.505-1.568-.7-.335-.253-.475-.532-.475-.84 0-.365.14-.644.448-.896.336-.224.783-.365 1.37-.365.813 0 1.484.14 2.016.477l.196.14.7-1.147zm-9.123.671c-1.036-.896-2.323-1.371-3.807-1.371-1.456 0-2.659.447-3.638 1.315-1.092.98-1.651 2.324-1.651 4.088v7.028h1.454v-4.536a4.57 4.57 0 001.68 1.177c.672.307 1.4.447 2.184.447 1.483 0 2.742-.447 3.778-1.4 1.064-.924 1.594-2.044 1.594-3.36 0-1.344-.53-2.463-1.594-3.388zm-3.807-.112c1.092 0 2.043.337 2.77 1.008.757.672 1.148 1.511 1.148 2.52 0 .952-.336 1.736-1.007 2.408-.728.7-1.707 1.064-2.883 1.064s-2.128-.364-2.883-1.064c-.7-.7-1.035-1.484-1.035-2.407 0-.925.336-1.737 1.035-2.41.728-.727 1.68-1.119 2.855-1.119zm-7.613.56c-.979-1.232-2.378-1.82-4.254-1.82-1.4 0-2.604.392-3.639 1.232-1.119.868-1.678 2.044-1.678 3.5 0 .812.223 1.624.699 2.38.42.728 1.064 1.316 1.931 1.764.868.42 1.791.616 2.799.616.952 0 1.847-.196 2.715-.616.867-.448 1.51-1.036 1.93-1.764l.28-.476h-1.622c-.337.476-.813.868-1.428 1.176a4.337 4.337 0 01-1.931.448c-.896 0-1.651-.225-2.323-.672a3.687 3.687 0 01-1.4-1.848 7.624 7.624 0 012.856-.56l1.51.167 2.352.225c.727 0 1.344-.113 1.903-.28.224-.084.364-.196.42-.337.084-.111.084-.307.029-.532-.17-1.007-.533-1.874-1.149-2.602zm-.391 2.297l.028.056-.812.112-1.763-.168-2.463-.197h-.42a8.189 8.189 0 00-2.211.448c.111-1.036.616-1.848 1.455-2.436.7-.448 1.484-.7 2.323-.7 1.315 0 2.323.42 3.079 1.26.392.505.671 1.036.784 1.625zM39.641 10.11c-1.428 0-2.66.448-3.639 1.316-1.091.98-1.623 2.324-1.623 4.088l-.028 7.027h1.511l-.028-4.535a4.69 4.69 0 001.652 1.176c.7.308 1.427.447 2.21.447 1.484 0 2.744-.447 3.78-1.4 1.063-.924 1.566-2.044 1.566-3.36 0-1.344-.503-2.463-1.54-3.387-1.062-.896-2.322-1.372-3.861-1.372zm-2.855 2.38c.756-.728 1.68-1.12 2.855-1.12 1.12 0 2.043.337 2.798 1.008.757.672 1.12 1.511 1.12 2.52 0 .952-.336 1.736-.98 2.408-.727.7-1.679 1.064-2.91 1.064-1.148 0-2.127-.364-2.883-1.064-.672-.7-1.008-1.484-1.008-2.407 0-.925.336-1.736 1.008-2.409z" fill="#004883"/><path d="M23.773 3.902a3.67 3.67 0 01-.365-.316 14.157 14.157 0 00-8.182-2.59C7.366.996.996 7.372.996 15.238a14.193 14.193 0 002.816 8.506c4.762-1.407 8.916-3.854 12.477-7.392 3.556-3.52 6.054-7.686 7.484-12.45z" fill="#E32934"/><path d="M15.226 29.48c7.858 0 14.23-6.377 14.23-14.242 0-2.785-.8-5.38-2.18-7.574a.768.768 0 01-.096-.118c.29.956.436 1.949.435 2.948a9.922 9.922 0 01-1.107 4.578 10.358 10.358 0 01-2.983 3.457c-.995.734-2.189 1.356-3.594 1.866-1.118.41-2.573.833-4.376 1.243l-5.197 1.17a83.523 83.523 0 00-6.015 1.604 14.188 14.188 0 0010.883 5.068z" fill="#004883"/></g><defs><clipPath id="clip0_1922_2240"><path fill="#fff" d="M0 0h80v30.476H0z"/></clipPath></defs></svg>
